svg/color/dvc.svg

<?xml version="1.0" encoding="UTF-8" ?>
<!DOCTYPE svg PUBLIC "-//W3C//DTD SVG 1.1//EN" "http://www.w3.org/Graphics/SVG/1.1/DTD/svg11.dtd">
<svg width="237pt" height="250pt" viewBox="0 0 237 250" version="1.1" xmlns="http://www.w3.org/2000/svg">
<g id="#fefdfaff">
<path fill="#fefdfa" opacity="1.00" d=" M 0.00 0.00 L 237.00 0.00 L 237.00 250.00 L 0.00 250.00 L 0.00 0.00 M 22.29 25.37 C 17.61 25.79 21.52 32.62 19.96 35.00 C 20.83 82.69 18.67 130.36 20.07 177.94 C 35.07 178.61 50.70 176.97 65.31 178.69 C 67.28 193.59 66.78 209.66 67.04 224.93 C 117.66 225.06 168.29 225.02 218.91 224.95 C 219.09 158.69 219.01 92.42 218.94 26.15 C 153.53 24.86 87.77 27.31 22.29 25.37 Z" />
<path fill="#fefdfa" opacity="1.00" d=" M 40.05 46.05 C 92.68 46.00 145.32 45.91 197.95 46.08 C 198.07 98.06 197.96 150.04 198.01 202.01 C 198.55 204.91 194.42 206.70 192.01 205.00 C 158.67 205.03 125.33 204.94 91.98 205.05 C 90.31 204.89 88.16 205.48 87.13 203.75 C 86.85 195.57 86.87 187.39 87.12 179.21 C 103.38 175.21 121.89 182.26 137.14 173.15 C 161.32 162.25 170.59 129.52 156.83 107.20 C 148.42 92.83 131.88 82.81 115.01 83.97 C 99.02 84.11 83.03 83.80 67.05 84.08 C 67.04 108.72 67.24 133.35 65.91 157.94 C 57.57 157.16 47.65 159.88 40.13 156.74 C 39.86 119.84 40.01 82.94 40.05 46.05 Z" />
<path fill="#fefdfa" opacity="1.00" d=" M 87.09 104.05 C 103.39 105.34 124.69 98.54 136.40 113.61 C 145.40 124.07 144.71 141.79 133.82 150.81 C 121.84 163.36 102.20 156.16 87.06 157.94 C 87.01 139.98 86.83 122.01 87.09 104.05 Z" />
</g>
<g id="#c5a879ff">
<path fill="#c5a879" opacity="1.00" d=" M 22.29 25.37 C 87.77 27.31 153.53 24.86 218.94 26.15 C 219.01 92.42 219.09 158.69 218.91 224.95 C 168.29 225.02 117.66 225.06 67.04 224.93 C 66.78 209.66 67.28 193.59 65.31 178.69 C 50.70 176.97 35.07 178.61 20.07 177.94 C 18.67 130.36 20.83 82.69 19.96 35.00 C 21.52 32.62 17.61 25.79 22.29 25.37 M 40.05 46.05 C 40.01 82.94 39.86 119.84 40.13 156.74 C 47.65 159.88 57.57 157.16 65.91 157.94 C 67.24 133.35 67.04 108.72 67.05 84.08 C 83.03 83.80 99.02 84.11 115.01 83.97 C 131.88 82.81 148.42 92.83 156.83 107.20 C 170.59 129.52 161.32 162.25 137.14 173.15 C 121.89 182.26 103.38 175.21 87.12 179.21 C 86.87 187.39 86.85 195.57 87.13 203.75 C 88.16 205.48 90.31 204.89 91.98 205.05 C 125.33 204.94 158.67 205.03 192.01 205.00 C 194.42 206.70 198.55 204.91 198.01 202.01 C 197.96 150.04 198.07 98.06 197.95 46.08 C 145.32 45.91 92.68 46.00 40.05 46.05 M 87.09 104.05 C 86.83 122.01 87.01 139.98 87.06 157.94 C 102.20 156.16 121.84 163.36 133.82 150.81 C 144.71 141.79 145.40 124.07 136.40 113.61 C 124.69 98.54 103.39 105.34 87.09 104.05 Z" />
</g>
</svg>

<?xml version="1.0" encoding="utf-8"?>
<!-- Generator: Adobe Illustrator 26.0.3, SVG Export Plug-In . SVG Version: 6.00 Build 0)  -->
<svg version="1.1" id="Layer_1" xmlns="http://www.w3.org/2000/svg" xmlns:xlink="http://www.w3.org/1999/xlink" x="0px" y="0px"
	 viewBox="0 0 237 250" style="enable-background:new 0 0 237 250;" xml:space="preserve">
<style type="text/css">
	.st0{fill:#FEFDFA;}
	.st1{fill:#C5A879;}
</style>
<g id="_x23_fefdfaff">
	<path class="st0" d="M40,46c52.6,0,105.3-0.1,157.9,0c0.1,52,0,104,0.1,155.9c0.5,2.9-3.6,4.7-6,3c-33.3,0-66.7-0.1-100,0.1
		c-1.7-0.2-3.8,0.4-4.9-1.3c-0.3-8.2-0.3-16.4,0-24.5c16.3-4,34.8,3,50-6.1c24.2-10.9,33.4-43.6,19.7-65.9
		C148.4,92.8,131.9,82.8,115,84c-16,0.1-32-0.2-48,0.1c0,24.6,0.2,49.3-1.1,73.9c-8.3-0.8-18.3,1.9-25.8-1.2
		C39.9,119.8,40,82.9,40,46z"/>
	<path class="st0" d="M87.1,104.1c16.3,1.3,37.6-5.5,49.3,9.6c9,10.5,8.3,28.2-2.6,37.2c-12,12.6-31.6,5.4-46.8,7.1
		C87,140,86.8,122,87.1,104.1z"/>
</g>
<g id="_x23_c5a879ff">
	<path class="st1" d="M22.3,25.4c65.5,1.9,131.2-0.5,196.6,0.8c0.1,66.3,0.1,132.5,0,198.8c-50.6,0.1-101.2,0.1-151.9,0
		c-0.3-15.3,0.2-31.3-1.7-46.2c-14.6-1.7-30.2-0.1-45.2-0.8C18.7,130.4,20.8,82.7,20,35C21.5,32.6,17.6,25.8,22.3,25.4 M40,46
		c0,36.9-0.2,73.8,0.1,110.7c7.5,3.1,17.4,0.4,25.8,1.2c1.3-24.6,1.1-49.2,1.1-73.9c16-0.3,32,0,48-0.1c16.9-1.2,33.4,8.9,41.8,23.2
		c13.8,22.3,4.5,55.1-19.7,65.9c-15.2,9.1-33.8,2.1-50,6.1c-0.2,8.2-0.3,16.4,0,24.5c1,1.7,3.2,1.1,4.9,1.3c33.3-0.1,66.7,0,100-0.1
		c2.4,1.7,6.5-0.1,6-3c0-52,0.1-103.9-0.1-155.9C145.3,45.9,92.7,46,40,46 M87.1,104.1c-0.3,18-0.1,35.9,0,53.9
		c15.1-1.8,34.8,5.4,46.8-7.1c10.9-9,11.6-26.7,2.6-37.2C124.7,98.5,103.4,105.3,87.1,104.1z"/>
</g>
</svg>
